X:917
T:Wind that Shakes the Barley
R:Reel
B:The Athole Collection
M:C|
L:1/8
K:D
A|F(AA)B AFED|B2BA B2d2|F(AA)B AFED|gfed B2d:|
e|f2fd g2ge|f2fd Bcde|f2fd g2gb|afed B2 d>e|f2fd g2ge|
f2fd Bcde|fafd gbge|afed B2d||

